Sources/FrostedUI/Resources/Icons.xcassets/linkedin16.imageset/linkedin-16.svg

<svg width="16" height="16" viewBox="0 0 16 16" fill="none" xmlns="http://www.w3.org/2000/svg" data-fui-icon="true">
  <path
    d="M13.9637 1H2.03359C1.46211 1 1 1.45117 1 2.00898V13.9883C1 14.5461 1.46211 15 2.03359 15H13.9637C14.5352 15 15 14.5461 15 13.991V2.00898C15 1.45117 14.5352 1 13.9637 1ZM5.15352 12.9301H3.07539V6.24726H5.15352V12.9301ZM4.11445 5.33672C3.44727 5.33672 2.90859 4.79805 2.90859 4.13359C2.90859 3.46914 3.44727 2.93047 4.11445 2.93047C4.77891 2.93047 5.31758 3.46914 5.31758 4.13359C5.31758 4.79531 4.77891 5.33672 4.11445 5.33672ZM12.9301 12.9301H10.8547V9.68164C10.8547 8.90781 10.841 7.90977 9.77461 7.90977C8.69453 7.90977 8.53047 8.75469 8.53047 9.62695V12.9301H6.45781V6.24726H8.44844V7.16055H8.47578C8.75195 6.63555 9.43008 6.08047 10.4391 6.08047C12.5418 6.08047 12.9301 7.46406 12.9301 9.26328V12.9301Z"
    fill="currentColor"
  />
</svg>

<svg xmlns="http://www.w3.org/2000/svg" width="16" height="16" fill="none" data-fui-icon="true" viewBox="0 0 16 16"><path fill="currentColor" d="M13.964 1H2.034A1.02 1.02 0 0 0 1 2.009v11.98C1 14.545 1.462 15 2.034 15h11.93c.571 0 1.036-.454 1.036-1.009V2.009C15 1.451 14.535 1 13.964 1m-8.81 11.93H3.075V6.247h2.079zm-1.04-7.593a1.204 1.204 0 1 1-.004-2.408 1.204 1.204 0 0 1 .004 2.408m8.816 7.593h-2.075V9.682c0-.774-.014-1.772-1.08-1.772-1.08 0-1.245.845-1.245 1.717v3.303H6.458V6.247h1.99v.914h.028c.276-.525.954-1.08 1.963-1.08 2.103 0 2.491 1.383 2.491 3.182z"/></svg>
